X: 12349
T: Falling Snow
R: waltz
M: 3/4
K: Dminor
|:A,2 F2 E2|D4 A2|G4 E2|C4 B,2|A,2 F2 A,2|B,2 F2 B,2|
C2 G2 E2|C2 D2 E2|F4 D2|D3C A,2|c2 d2 e2|
d2 c2 A2|G3A c2|C3D E2|A,2 =B,2 C2|D6:|
|:d3e f2|d2 c2 A2|f2 g2 a2|a2 ag f2|d3e f2|
d2 c2 A2|G3A c2|C2 D2 E2|F4 D2|D3C A,2|
c2 d2 e2|d2 c2 A2|Gc c2 E2|Ec c2 E2|C3F E2|D6:|

